X: 20
T: Poor Jenny
%R: jig
B: "Twenty Four Country Dances with Figures for the Year 1809", Button & Whitaker, p.20 #2
F: http://www.vwml.org/browse/browse-collections-dance-tune-books/browse-button1809
Z: 2014 John Chambers <jc:trillian.mit.edu>
M: 6/8
L: 1/8
K: G
% - - - - - - - - - - - - - - - - - - - - - - - - - - - - -
(B/c/) | (ded) (gdc) | (Bcd) (GBd) | (edc) (BAG) | (F/G/AF) D2(B/c/) |\
(def) {a}g2f | (efg) {b}a2g | (fad) ({f}ede) | d2f d2 :|
|: (f/g/) | (aba) (fed) | (gdc) (BAG) | (EAB) (cAG) | (F/G/AF) (DEF) |\
({A}GFG) ({B}AGA) | ({c}BAB) (cde) | (dgb) ({b}aga) | g2b g2 :|
% - - - - - - - - - - Dance description - - - - - - - - - -
%%begintext align
%% Hands across, back again, down the mid:
%% up again, & Allemande.
%%endtext

%%sep 1 1 500
%%sep 1 1 500
